X:1
T: Peter Baillie
C:
R:Strathspey
Q: 128
K:G
M:4/4
L:1/16
|:e2|BE3 B3A BE3 B3^c|d3B Ad3 FD3 A3d|BE3 B3A BE3 B3A|((3B2^c2d2) ((3A2F2A2) BE3 E2e2|
B2E2 BAGF B2E2 BAGF|d3A B^cdA FGAF D2d2|B2E2 BAGF B2E2 BAGF|((3B2^c2d2) ((3A2F2A2) BE3 E2f2|
g3f eb3 ge3 b3g|f3e da3 fd3 a3f|g3f eb3 ge3 b3g|f3e ^df3 ge3 e3f|
g3f e3f fab2 efg2|f3e d3g fga2 def2|gab2 fga2 ((3e2f2g2) ((3F2G2A2) |((3B2^c2d2) ((3A2G2F2) GE3 E2:|
